public/images/logo.svg

<svg width="207.173" height="70" xmlns="http://www.w3.org/2000/svg">
 <defs>
  <linearGradient y2="-0.07792" x2="0.16633" y1="1.077937" x1="0.833663" id="SVGID_1_">
   <stop stop-color="#3C9EDF" offset="0"/>
   <stop stop-color="#2C7CD3" offset="1"/>
  </linearGradient>
 </defs>
 <g>
  <title>background</title>
  <rect fill="none" id="canvas_background" height="402" width="582" y="-1" x="-1"/>
 </g>
 <g>
  <title>Layer 1</title>
  <path id="svg_1" d="m3,0l64,0c1.656,0 3,1.343 3,3l0,64c0,1.657 -1.344,3 -3,3l-64,0c-1.657,0 -3,-1.343 -3,-3l0,-64c0,-1.657 1.343,-3 3,-3zm33.595,33.51l18.778,23.49l-12.51,0l-13.037,-17.298l-3.838,4.692l0,12.606l-9.975,0l0,-44l9.975,0l0,19.358l15.467,-19.358l12.504,0l-17.364,20.51z" fill="url(#SVGID_1_)" clip-rule="evenodd" fill-rule="evenodd"/>
  <text stroke="null" transform="matrix(3.1475843058267694,0,0,2.5814319092280673,-240.64894645044362,6.305013722941942) " font-style="normal" font-weight="bold" xml:space="preserve" text-anchor="start" font-family="Helvetica, Arial, sans-serif" font-size="24" id="svg_18" y="20.777115" x="100.007017" stroke-width="11" fill="#333333">IJA</text>
 </g>
</svg>

<?xml version="1.0" encoding="utf-8"?>
<!-- Generator: Adobe Illustrator 15.0.0, SVG Export Plug-In . SVG Version: 6.00 Build 0)  -->
<!DOCTYPE svg PUBLIC "-//W3C//DTD SVG 1.1//EN" "http://www.w3.org/Graphics/SVG/1.1/DTD/svg11.dtd">
<svg version="1.1" id="Layer_1" xmlns="http://www.w3.org/2000/svg" xmlns:xlink="http://www.w3.org/1999/xlink" x="0px" y="0px"
	 width="207.173px" height="70px" viewBox="0 0 207.173 70" enable-background="new 0 0 207.173 70" xml:space="preserve">
<linearGradient id="SVGID_1_" gradientUnits="userSpaceOnUse" x1="58.3564" y1="75.4556" x2="11.6431" y2="-5.4544">
	<stop  offset="0" style="stop-color:#3C9EDF"/>
	<stop  offset="1" style="stop-color:#2C7CD3"/>
</linearGradient>
<path fill-rule="evenodd" clip-rule="evenodd" fill="url(#SVGID_1_)" d="M3,0h64c1.656,0,3,1.343,3,3v64c0,1.657-1.344,3-3,3H3
	c-1.657,0-3-1.343-3-3V3C0,1.343,1.343,0,3,0z M36.595,33.51L55.373,57h-12.51L29.826,39.702l-3.838,4.692V57h-9.975V13h9.975
	v19.358L41.455,13h12.504L36.595,33.51z"/>
<g>
	<path fill="#1A1A1A" d="M95.673,57l-6.072-7.201l-1.608,1.824V57H86V40.991h1.992v8.257l7.081-8.257h2.497l-6.673,7.584L98.169,57
		H95.673z"/>
	<path fill="#1A1A1A" d="M98.864,51.191c0-3.36,2.4-6.072,5.713-6.072c3.504,0,5.568,2.736,5.568,6.216v0.456h-9.361
		c0.144,2.184,1.656,4.008,4.152,4.008c1.344,0,2.664-0.528,3.6-1.488l0.864,1.176c-1.176,1.152-2.736,1.8-4.608,1.8
		C101.336,57.288,98.864,54.816,98.864,51.191z M104.552,46.607c-2.472,0-3.696,2.088-3.792,3.84h7.608
		C108.345,48.743,107.193,46.607,104.552,46.607z"/>
	<path fill="#1A1A1A" d="M112.688,59.904c0.264,0.12,0.696,0.192,0.984,0.192c0.792,0,1.32-0.264,1.728-1.224l0.768-1.752
		l-4.849-11.713h1.968l3.84,9.504l3.864-9.504h1.944l-5.809,13.945c-0.696,1.68-1.872,2.328-3.408,2.353
		c-0.384,0-0.984-0.072-1.296-0.168L112.688,59.904z"/>
	<path fill="#1A1A1A" d="M123.824,55.464l0.912-1.296c0.768,0.888,2.231,1.656,3.816,1.656c1.775,0,2.76-0.84,2.76-1.992
		c0-2.808-7.177-1.08-7.177-5.376c0-1.824,1.536-3.336,4.297-3.336c1.992,0,3.384,0.744,4.296,1.68l-0.84,1.248
		c-0.696-0.84-1.944-1.464-3.456-1.464c-1.584,0-2.568,0.792-2.568,1.824c0,2.52,7.177,0.864,7.177,5.376
		c0,1.944-1.561,3.504-4.537,3.504C126.584,57.288,125,56.688,123.824,55.464z"/>
	<path fill="#1A1A1A" d="M136.327,54.576v-7.584h-1.92v-1.584h1.92v-3.168h1.824v3.168h2.353v1.584h-2.353v7.201
		c0,0.864,0.384,1.488,1.152,1.488c0.527,0,0.983-0.24,1.224-0.504l0.528,1.368c-0.456,0.432-1.104,0.744-2.137,0.744
		C137.191,57.288,136.327,56.304,136.327,54.576z"/>
	<path fill="#1A1A1A" d="M142.352,51.191c0-3.36,2.208-6.072,5.736-6.072s5.737,2.712,5.737,6.072s-2.209,6.097-5.737,6.097
		S142.352,54.552,142.352,51.191z M151.929,51.191c0-2.352-1.368-4.464-3.841-4.464c-2.472,0-3.84,2.112-3.84,4.464
		c0,2.376,1.368,4.488,3.84,4.488C150.561,55.68,151.929,53.568,151.929,51.191z"/>
	<path fill="#1A1A1A" d="M164.6,57v-7.584c0-2.064-1.056-2.688-2.616-2.688c-1.416,0-2.736,0.864-3.432,1.8V57h-1.801V45.407h1.801
		v1.68c0.815-0.984,2.4-1.968,4.152-1.968c2.4,0,3.672,1.224,3.672,3.744V57H164.6z"/>
	<path fill="#1A1A1A" d="M169.326,51.191c0-3.36,2.4-6.072,5.713-6.072c3.504,0,5.568,2.736,5.568,6.216v0.456h-9.361
		c0.145,2.184,1.656,4.008,4.152,4.008c1.345,0,2.665-0.528,3.601-1.488l0.864,1.176c-1.176,1.152-2.736,1.8-4.608,1.8
		C171.799,57.288,169.326,54.816,169.326,51.191z M175.015,46.607c-2.472,0-3.696,2.088-3.792,3.84h7.608
		C178.808,48.743,177.655,46.607,175.015,46.607z"/>
	<path fill="#1A1A1A" d="M181.974,55.44l1.057-1.512c0.672,0.84,1.608,1.584,3,1.584c1.968,0,3.217-1.368,3.217-3.36V40.991h1.992
		v11.185c0,3.456-2.232,5.112-5.089,5.112C184.47,57.288,183.078,56.736,181.974,55.44z"/>
	<path fill="#1A1A1A" d="M194.023,54.744l1.199-1.536c1.033,1.2,2.76,2.304,5.018,2.304c2.855,0,3.768-1.536,3.768-2.784
		c0-4.128-9.48-1.824-9.48-7.537c0-2.64,2.352-4.464,5.52-4.464c2.424,0,4.32,0.84,5.666,2.256l-1.201,1.464
		c-1.199-1.344-2.881-1.92-4.633-1.92c-1.896,0-3.287,1.032-3.287,2.544c0,3.601,9.48,1.536,9.48,7.513
		c0,2.304-1.584,4.705-5.904,4.705C197.406,57.288,195.343,56.232,194.023,54.744z"/>
</g>
</svg>
